48x48/apps/salut.svg

<?xml version="1.0" encoding="UTF-8" standalone="no"?>
<svg
   xmlns:dc="http://purl.org/dc/elements/1.1/"
   xmlns:cc="http://creativecommons.org/ns#"
   xmlns:rdf="http://www.w3.org/1999/02/22-rdf-syntax-ns#"
   xmlns:svg="http://www.w3.org/2000/svg"
   xmlns="http://www.w3.org/2000/svg"
   xmlns:xlink="http://www.w3.org/1999/xlink"
   xmlns:sodipodi="http://sodipodi.sourceforge.net/DTD/sodipodi-0.dtd"
   xmlns:inkscape="http://www.inkscape.org/namespaces/inkscape"
   width="48"
   height="48"
   viewBox="0 0 48 48"
   id="svg2"
   version="1.1"
   inkscape:version="0.48.4 r9939"
   sodipodi:docname="salut.svg">
  <metadata
     id="metadata106">
    <rdf:RDF>
      <cc:Work
         rdf:about="">
        <dc:format>image/svg+xml</dc:format>
        <dc:type
           rdf:resource="http://purl.org/dc/dcmitype/StillImage" />
      </cc:Work>
    </rdf:RDF>
  </metadata>
  <sodipodi:namedview
     pagecolor="#ffffff"
     bordercolor="#666666"
     borderopacity="1"
     objecttolerance="10"
     gridtolerance="10"
     guidetolerance="10"
     inkscape:pageopacity="0"
     inkscape:pageshadow="2"
     inkscape:window-width="1375"
     inkscape:window-height="876"
     id="namedview104"
     showgrid="false"
     inkscape:zoom="4.9166667"
     inkscape:cx="-0.20338983"
     inkscape:cy="24"
     inkscape:window-x="65"
     inkscape:window-y="24"
     inkscape:window-maximized="1"
     inkscape:current-layer="svg2" />
  <defs
     id="defs4">
    <clipPath
       id="clip2">
      <rect
         width="48"
         height="48"
         id="rect7" />
    </clipPath>
    <clipPath
       id="clip1">
      <rect
         width="48"
         height="48"
         id="rect10" />
    </clipPath>
    <clipPath
       id="clip5">
      <rect
         width="48"
         height="48"
         id="rect13" />
    </clipPath>
    <clipPath
       id="clip4">
      <rect
         width="48"
         height="48"
         id="rect16" />
    </clipPath>
    <clipPath
       id="clip3">
      <rect
         width="48"
         height="48"
         id="rect19" />
    </clipPath>
    <filter
       width="100%"
       x="0"
       y="0"
       height="100%"
       filterUnits="objectBoundingBox"
       id="alpha">
      <feColorMatrix
         values="0 0 0 0 1 0 0 0 0 1 0 0 0 0 1 0 0 0 1 0"
         in="SourceGraphic"
         type="matrix"
         id="feColorMatrix22" />
    </filter>
    <g
       style="clip-path:url(#clip4)"
       id="surface44"
       clip-path="url(#clip4)">
      <use
         xlink:href="#image37"
         id="use25" />
    </g>
    <g
       style="clip-path:url(#clip2)"
       id="surface26"
       clip-path="url(#clip2)">
      <use
         xlink:href="#image19"
         id="use28" />
    </g>
    <g
       style="clip-path:url(#clip3)"
       id="surface35"
       clip-path="url(#clip3)">
      <use
         xlink:href="#image28"
         id="use31" />
    </g>
    <g
       style="clip-path:url(#clip5)"
       id="surface53"
       clip-path="url(#clip5)">
      <use
         xlink:href="#image46"
         id="use34" />
    </g>
    <g
       style="clip-path:url(#clip1)"
       id="surface17"
       clip-path="url(#clip1)">
      <use
         xlink:href="#image10"
         id="use37" />
    </g>
    <image
       width="48"
       height="48"
       id="image42"
       xlink:href="data:image/png;base64,iVBORw0KGgoAAAANSUhEUgAAADAAAAAwCAYAAABXAvmHAAAABmJLR0QA/wD/AP+gvaeTAAAAVElEQVRoge3PQQ0AIRDAwGNF4P+BUETcY0LSUdCuPXO+h40O+KsBrQGtAa0BrQGtAa0BrQGtAa0BrQGtAa0BrQGtAa0BrQGtAa0BrQGtAa0BrQHtAsgPAR5Ik1qvAAAAAElFTkSuQmCC" />
    <image
       width="48"
       height="48"
       id="image15"
       xlink:href="data:image/png;base64,iVBORw0KGgoAAAANSUhEUgAAADAAAAAwCAYAAABXAvmHAAAABmJLR0QA/wD/AP+gvaeTAAAAVElEQVRoge3PQQ0AIRDAwGNF4P+BUETcY0LSUdCuPXO+h40O+KsBrQGtAa0BrQGtAa0BrQGtAa0BrQGtAa0BrQGtAa0BrQGtAa0BrQGtAa0BrQHtAsgPAR5Ik1qvAAAAAElFTkSuQmCC" />
    <image
       width="48"
       height="48"
       id="image51"
       xlink:href="data:image/png;base64,iVBORw0KGgoAAAANSUhEUgAAADAAAAAwCAYAAABXAvmHAAAABmJLR0QA/wD/AP+gvaeTAAAAVElEQVRoge3PQQ0AIRDAwGNF4P+BUETcY0LSUdCuPXO+h40O+KsBrQGtAa0BrQGtAa0BrQGtAa0BrQGtAa0BrQGtAa0BrQGtAa0BrQGtAa0BrQHtAsgPAR5Ik1qvAAAAAElFTkSuQmCC" />
    <image
       width="48"
       height="48"
       id="image46"
       xlink:href="data:image/png;base64,iVBORw0KGgoAAAANSUhEUgAAADAAAAAwCAYAAABXAvmHAAAABmJLR0QA/wD/AP+gvaeTAAAAjklEQVRoge3PPQ4BURRA4fOGabAPFqAnKpFobUFvBdNq9IrZACWVbhrb0fipDI0FeAl5EeerbnNvzgVJkiRJkiRJkiRJPyWkDhgvy26WhV670TlsF7Nb7H7zG1HvmqzKPnU4Avnlfq6AYeyN7ONVER51GAE5AIHBtFi3Ym8kfQDYA6fXvNkV82vKGEn6Q09FmRU2fJ/VgQAAAABJRU5ErkJggg==" />
    <image
       width="48"
       height="48"
       id="image10"
       xlink:href="data:image/png;base64,iVBORw0KGgoAAAANSUhEUgAAADAAAAAwCAYAAABXAvmHAAAABmJLR0QA/wD/AP+gvaeTAAAAm0lEQVRoge3PvwnCQBiG8fdyYBXQAexTW1ikcwQbN8gEwQHcwBHsHUBI5QgBawsNLiCcQiB/bBzgTrjK59d98BXPKwEAAAAA8BMT8rzeH2Ztr5VRX5+2xT1WVAjvAZvdcfJK3UVSZiTXJcOiKotrxDYvie/je+rmkjJJGqXUDjaPVhXAe8Dy2dwknb/noxttFaUIAAAAAAAA+Acf5XodzcPl5SIAAAAASUVORK5CYII=" />
    <image
       width="48"
       height="48"
       id="image19"
       xlink:href="data:image/png;base64,iVBORw0KGgoAAAANSUhEUgAAADAAAAAwCAYAAABXAvmHAAAABmJLR0QA/wD/AP+gvaeTAAAAhUlEQVRoge3RsQkCQRBA0b+LJheYXSSWYRH2IXYgGhmamFmDLdiJzbjBjpmRyF1wLOJ/2cAMfBiQJEmSpB+VWgdsrrcFpVxI9LnW032/fYy5n00VNlQuz0OQdgQEeQWsR91P1DVYTbl7D4nuy+pHzT/APM4UlgF9Co6tcyRJkiRJkiT9hRfOjRVxVyYo1AAAAABJRU5ErkJggg==" />
    <image
       width="48"
       height="48"
       id="image33"
       xlink:href="data:image/png;base64,iVBORw0KGgoAAAANSUhEUgAAADAAAAAwCAYAAABXAvmHAAAABmJLR0QA/wD/AP+gvaeTAAAAVElEQVRoge3PQQ0AIRDAwGNF4P+BUETcY0LSUdCuPXO+h40O+KsBrQGtAa0BrQGtAa0BrQGtAa0BrQGtAa0BrQGtAa0BrQGtAa0BrQGtAa0BrQHtAsgPAR5Ik1qvAAAAAElFTkSuQmCC" />
    <image
       width="48"
       height="48"
       id="image28"
       xlink:href="data:image/png;base64,iVBORw0KGgoAAAANSUhEUgAAADAAAAAwCAYAAABXAvmHAAAABmJLR0QA/wD/AP+gvaeTAAAAcUlEQVRoge3PvQ3CQBBE4Xd2Yk5X0+kKME1QAwW4Ccc0gSxRCW04c8RPcjESwWbvyzaZmQVJ+qWta4nMT1HBbblNufCATwXu2/VyjugZIkIBTvld+3iAOaon7IHXmJ7A0c89qkeSJEmSJEmSJEmS9JcvuaYOE581H7cAAAAASUVORK5CYII=" />
    <image
       width="48"
       height="48"
       id="image37"
       xlink:href="data:image/png;base64,iVBORw0KGgoAAAANSUhEUgAAADAAAAAwCAYAAABXAvmHAAAABmJLR0QA/wD/AP+gvaeTAAAAf0lEQVRoge3PsQnCUBhF4fMMNpIZIriNiKXpHMTu2QesbTJA3EQQnMApbGMsLc0PBpvzlbc6FyRJkiRJkiRJkiR9tc3nRc559u8OgHDEummPfTl/XsvqsTm1qymiIkIHdl1XJDgACVgOr7SfJmu80IFLXffA/bMMtx/3SJIU8gZS+hPsTFlE4gAAAABJRU5ErkJggg==" />
    <image
       width="48"
       height="48"
       id="image24"
       xlink:href="data:image/png;base64,iVBORw0KGgoAAAANSUhEUgAAADAAAAAwCAYAAABXAvmHAAAABmJLR0QA/wD/AP+gvaeTAAAAVElEQVRoge3PQQ0AIRDAwGNF4P+BUETcY0LSUdCuPXO+h40O+KsBrQGtAa0BrQGtAa0BrQGtAa0BrQGtAa0BrQGtAa0BrQGtAa0BrQGtAa0BrQHtAsgPAR5Ik1qvAAAAAElFTkSuQmCC" />
    <mask
       id="mask4">
      <g
         style="filter:url(#alpha)"
         id="g50">
        <use
           xlink:href="#image51"
           id="use52" />
      </g>
    </mask>
    <mask
       id="mask2">
      <g
         style="filter:url(#alpha)"
         id="g55">
        <use
           xlink:href="#image33"
           id="use57" />
      </g>
    </mask>
    <mask
       id="mask0">
      <g
         style="filter:url(#alpha)"
         id="g60">
        <use
           xlink:href="#image15"
           id="use62" />
      </g>
    </mask>
    <mask
       id="mask1">
      <g
         style="filter:url(#alpha)"
         id="g65">
        <use
           xlink:href="#image24"
           id="use67" />
      </g>
    </mask>
    <mask
       id="mask3">
      <g
         style="filter:url(#alpha)"
         id="g70">
        <use
           xlink:href="#image42"
           id="use72" />
      </g>
    </mask>
    <linearGradient
       id="linearGradient3764"
       x1="1"
       x2="47"
       gradientUnits="userSpaceOnUse"
       gradientTransform="matrix(0,-1,1,0,-1.5e-6,47.999998)">
      <stop
         stop-color="#b5945b"
         stop-opacity="1"
         id="stop7" />
      <stop
         offset="1"
         stop-color="#bb9e69"
         stop-opacity="1"
         id="stop9" />
    </linearGradient>
    <clipPath
       id="clipPath-899834956">
      <g
         transform="translate(0,-1004.3622)"
         id="g12">
        <path
           d="m -24 13 c 0 1.105 -0.672 2 -1.5 2 -0.828 0 -1.5 -0.895 -1.5 -2 0 -1.105 0.672 -2 1.5 -2 0.828 0 1.5 0.895 1.5 2 z"
           transform="matrix(15.333333,0,0,11.5,414.99999,878.8622)"
           fill="#1890d0"
           id="path14" />
      </g>
    </clipPath>
    <clipPath
       id="clipPath-909443126">
      <g
         transform="translate(0,-1004.3622)"
         id="g17">
        <path
           d="m -24 13 c 0 1.105 -0.672 2 -1.5 2 -0.828 0 -1.5 -0.895 -1.5 -2 0 -1.105 0.672 -2 1.5 -2 0.828 0 1.5 0.895 1.5 2 z"
           transform="matrix(15.333333,0,0,11.5,414.99999,878.8622)"
           fill="#1890d0"
           id="path19" />
      </g>
    </clipPath>
    <clipPath
       id="clipPath-909443126-7">
      <g
         transform="translate(0,-1004.3622)"
         id="g17-2">
        <path
           style="fill:#1890d0"
           inkscape:connector-curvature="0"
           d="m -24,13 c 0,1.105 -0.672,2 -1.5,2 -0.828,0 -1.5,-0.895 -1.5,-2 0,-1.105 0.672,-2 1.5,-2 0.828,0 1.5,0.895 1.5,2 z"
           transform="matrix(15.333333,0,0,11.5,414.99999,878.8622)"
           id="path19-3" />
      </g>
    </clipPath>
    <linearGradient
       id="linearGradient3759">
      <stop
         id="stop3761"
         offset="0"
         style="stop-color:#a75e15;stop-opacity:1;" />
      <stop
         id="stop3763"
         offset="1"
         style="stop-color:#ffffff;stop-opacity:0;" />
    </linearGradient>
    <linearGradient
       id="linearGradient3777">
      <stop
         id="stop3779"
         offset="0"
         style="stop-color:#e0dd00;stop-opacity:1;" />
      <stop
         id="stop3781"
         offset="1"
         style="stop-color:#000000;stop-opacity:0;" />
    </linearGradient>
  </defs>
  <g
     id="g3130">
    <g
       inkscape:label="shadows"
       id="layer2">
      <rect
         ry="13.03658"
         rx="13.03658"
         y="1"
         x="1"
         height="46"
         width="46"
         id="rect3007"
         style="opacity:0.1;fill:#000000;fill-opacity:1;fill-rule:nonzero;stroke:none" />
      <rect
         style="opacity:0.1;fill:#000000;fill-opacity:1;fill-rule:nonzero;stroke:none"
         id="rect3011"
         width="47"
         height="47"
         x="0.5"
         y="0.5"
         rx="13.319984"
         ry="13.319984" />
      <rect
         style="opacity:0.1;fill:#000000;fill-opacity:1;fill-rule:nonzero;stroke:none"
         id="rect3013"
         width="46.5"
         height="46.5"
         x="0.75"
         y="0.75"
         rx="13.178282"
         ry="13.178282" />
    </g>
    <g
       style="display:inline"
       inkscape:label="background-color"
       id="layer1">
      <rect
         transform="matrix(0,-1,1,0,0,0)"
         ry="12.753176"
         rx="12.753176"
         y="1.5"
         x="-46.5"
         height="45"
         width="45"
         id="rect2988"
         style="fill:#f2f2f2;fill-opacity:1;fill-rule:nonzero;stroke:none" />
    </g>
  </g>
  <path
     style="fill:#4a8c9d"
     d="m 22.964844,16.798828 2.070312,0 c 3.101563,0 3.039063,3.148437 3.039063,3.148437 l 0,2.703126 c 0,1.027343 -1.8125,3.148437 -1.8125,3.148437 l 0,1.351563 4.074219,2.25 0,1.800781 -12.671876,0 0,-1.800781 4.074219,-2.25 0,-1.351563 c 0,0 -1.820312,-2.121094 -1.8125,-3.148437 l 0,-2.703126 c 0,0 -0.0625,-3.148437 3.039063,-3.148437 z"
     id="path74-7"
     inkscape:connector-curvature="0" />
  <g
     style="fill:none;stroke:#4a8c9d;stroke-linecap:round;stroke-linejoin:round"
     id="g76-0"
     transform="translate(4.4318344e-4,-0.21514613)">
    <path
       style="stroke-width:5.28499985"
       d="m 224.88073,113.26934 c 0,29.09276 -34.17557,52.67408 -76.35996,52.67408 -42.18438,0 -76.359948,-23.58132 -76.359948,-52.67408 0,-29.080849 34.175568,-52.66217 76.359948,-52.66217 42.18439,0 76.35996,23.581321 76.35996,52.66217 z"
       transform="matrix(0.22631,0,0,0.32815,-9.61218,-12.42358)"
       id="path78-9"
       inkscape:connector-curvature="0" />
    <path
       style="stroke-width:7.6869998"
       d="m 224.89513,113.26812 c 0,29.08832 -34.19466,52.67064 -76.37309,52.67064 -42.17843,0 -76.373087,-23.58232 -76.373087,-52.67064 0,-29.088321 34.194657,-52.670639 76.373087,-52.670639 42.17843,0 76.37309,23.582318 76.37309,52.670639 z"
       transform="matrix(0.15559,0,0,0.22561,0.8916,-0.80787)"
       id="path80-8"
       inkscape:connector-curvature="0" />
  </g>
  <g
     style="fill:#4a8c9d"
     id="g92-7"
     transform="translate(4.4318344e-4,-0.41853613)">
    <path
       d="m 14.417969,21.433594 c 0,0.992187 -0.804688,1.800781 -1.800781,1.800781 -0.992188,0 -1.800782,-0.808594 -1.800782,-1.800781 0,-0.996094 0.808594,-1.800782 1.800782,-1.800782 0.996093,0 1.800781,0.804688 1.800781,1.800782 z"
       id="path94-0"
       inkscape:connector-curvature="0" />
    <path
       d="m 35.941406,19.0625 c 0,0.992188 -0.804687,1.800781 -1.800781,1.800781 -0.992187,0 -1.800781,-0.808593 -1.800781,-1.800781 0,-0.996094 0.808594,-1.800781 1.800781,-1.800781 0.996094,0 1.800781,0.804687 1.800781,1.800781 z"
       id="path96-2"
       inkscape:connector-curvature="0" />
    <path
       d="m 26.269531,7.683594 c 0,0.996094 -0.804687,1.800781 -1.800781,1.800781 -0.992188,0 -1.796875,-0.804687 -1.796875,-1.800781 0,-0.996094 0.804687,-1.800782 1.796875,-1.800782 0.996094,0 1.800781,0.804688 1.800781,1.800782 z"
       id="path98-9"
       inkscape:connector-curvature="0" />
    <path
       d="m 15.558594,38.6875 c 0,0.996094 -0.808594,1.800781 -1.800782,1.800781 -0.996093,0 -1.800781,-0.804687 -1.800781,-1.800781 0,-0.992188 0.804688,-1.800781 1.800781,-1.800781 0.992188,0 1.800782,0.808593 1.800782,1.800781 z"
       id="path100-8"
       inkscape:connector-curvature="0" />
    <path
       d="m 35.089844,39.445312 c 0,0.996094 -0.808594,1.800782 -1.800782,1.800782 -0.996093,0 -1.800781,-0.804688 -1.800781,-1.800782 0,-0.992187 0.804688,-1.796874 1.800781,-1.796874 0.992188,0 1.800782,0.804687 1.800782,1.796874 z"
       id="path102-8"
       inkscape:connector-curvature="0" />
  </g>
</svg>

<svg width="48" xmlns="http://www.w3.org/2000/svg" height="48" viewBox="0 0 48 48" xmlns:xlink="http://www.w3.org/1999/xlink">
<defs>
<clipPath id="clip2">
<rect width="48" height="48"/>
</clipPath>
<clipPath id="clip1">
<rect width="48" height="48"/>
</clipPath>
<clipPath id="clip5">
<rect width="48" height="48"/>
</clipPath>
<clipPath id="clip4">
<rect width="48" height="48"/>
</clipPath>
<clipPath id="clip3">
<rect width="48" height="48"/>
</clipPath>
<filter width="100%" x="0" y="0" height="100%" filterUnits="objectBoundingBox" id="alpha">
<feColorMatrix values="0 0 0 0 1 0 0 0 0 1 0 0 0 0 1 0 0 0 1 0" in="SourceGraphic" type="matrix"/>
</filter>
<g style="clip-path:url(#clip4)" id="surface44">
<use xlink:href="#image37"/>
</g>
<g style="clip-path:url(#clip2)" id="surface26">
<use xlink:href="#image19"/>
</g>
<g style="clip-path:url(#clip3)" id="surface35">
<use xlink:href="#image28"/>
</g>
<g style="clip-path:url(#clip5)" id="surface53">
<use xlink:href="#image46"/>
</g>
<g style="clip-path:url(#clip1)" id="surface17">
<use xlink:href="#image10"/>
</g>
<image width="48" height="48" id="image42" xlink:href="data:image/png;base64,iVBORw0KGgoAAAANSUhEUgAAADAAAAAwCAYAAABXAvmHAAAABmJLR0QA/wD/AP+gvaeTAAAAVElEQVRoge3PQQ0AIRDAwGNF4P+BUETcY0LSUdCuPXO+h40O+KsBrQGtAa0BrQGtAa0BrQGtAa0BrQGtAa0BrQGtAa0BrQGtAa0BrQGtAa0BrQHtAsgPAR5Ik1qvAAAAAElFTkSuQmCC"/>
<image width="48" height="48" id="image15" xlink:href="data:image/png;base64,iVBORw0KGgoAAAANSUhEUgAAADAAAAAwCAYAAABXAvmHAAAABmJLR0QA/wD/AP+gvaeTAAAAVElEQVRoge3PQQ0AIRDAwGNF4P+BUETcY0LSUdCuPXO+h40O+KsBrQGtAa0BrQGtAa0BrQGtAa0BrQGtAa0BrQGtAa0BrQGtAa0BrQGtAa0BrQHtAsgPAR5Ik1qvAAAAAElFTkSuQmCC"/>
<image width="48" height="48" id="image51" xlink:href="data:image/png;base64,iVBORw0KGgoAAAANSUhEUgAAADAAAAAwCAYAAABXAvmHAAAABmJLR0QA/wD/AP+gvaeTAAAAVElEQVRoge3PQQ0AIRDAwGNF4P+BUETcY0LSUdCuPXO+h40O+KsBrQGtAa0BrQGtAa0BrQGtAa0BrQGtAa0BrQGtAa0BrQGtAa0BrQGtAa0BrQHtAsgPAR5Ik1qvAAAAAElFTkSuQmCC"/>
<image width="48" height="48" id="image46" xlink:href="data:image/png;base64,iVBORw0KGgoAAAANSUhEUgAAADAAAAAwCAYAAABXAvmHAAAABmJLR0QA/wD/AP+gvaeTAAAAjklEQVRoge3PPQ4BURRA4fOGabAPFqAnKpFobUFvBdNq9IrZACWVbhrb0fipDI0FeAl5EeerbnNvzgVJkiRJkiRJkiRJPyWkDhgvy26WhV670TlsF7Nb7H7zG1HvmqzKPnU4Avnlfq6AYeyN7ONVER51GAE5AIHBtFi3Ym8kfQDYA6fXvNkV82vKGEn6Q09FmRU2fJ/VgQAAAABJRU5ErkJggg=="/>
<image width="48" height="48" id="image10" xlink:href="data:image/png;base64,iVBORw0KGgoAAAANSUhEUgAAADAAAAAwCAYAAABXAvmHAAAABmJLR0QA/wD/AP+gvaeTAAAAm0lEQVRoge3PvwnCQBiG8fdyYBXQAexTW1ikcwQbN8gEwQHcwBHsHUBI5QgBawsNLiCcQiB/bBzgTrjK59d98BXPKwEAAAAA8BMT8rzeH2Ztr5VRX5+2xT1WVAjvAZvdcfJK3UVSZiTXJcOiKotrxDYvie/je+rmkjJJGqXUDjaPVhXAe8Dy2dwknb/noxttFaUIAAAAAAAA+Acf5XodzcPl5SIAAAAASUVORK5CYII="/>
<image width="48" height="48" id="image19" xlink:href="data:image/png;base64,iVBORw0KGgoAAAANSUhEUgAAADAAAAAwCAYAAABXAvmHAAAABmJLR0QA/wD/AP+gvaeTAAAAhUlEQVRoge3RsQkCQRBA0b+LJheYXSSWYRH2IXYgGhmamFmDLdiJzbjBjpmRyF1wLOJ/2cAMfBiQJEmSpB+VWgdsrrcFpVxI9LnW032/fYy5n00VNlQuz0OQdgQEeQWsR91P1DVYTbl7D4nuy+pHzT/APM4UlgF9Co6tcyRJkiRJkiT9hRfOjRVxVyYo1AAAAABJRU5ErkJggg=="/>
<image width="48" height="48" id="image33" xlink:href="data:image/png;base64,iVBORw0KGgoAAAANSUhEUgAAADAAAAAwCAYAAABXAvmHAAAABmJLR0QA/wD/AP+gvaeTAAAAVElEQVRoge3PQQ0AIRDAwGNF4P+BUETcY0LSUdCuPXO+h40O+KsBrQGtAa0BrQGtAa0BrQGtAa0BrQGtAa0BrQGtAa0BrQGtAa0BrQGtAa0BrQHtAsgPAR5Ik1qvAAAAAElFTkSuQmCC"/>
<image width="48" height="48" id="image28" xlink:href="data:image/png;base64,iVBORw0KGgoAAAANSUhEUgAAADAAAAAwCAYAAABXAvmHAAAABmJLR0QA/wD/AP+gvaeTAAAAcUlEQVRoge3PvQ3CQBBE4Xd2Yk5X0+kKME1QAwW4Ccc0gSxRCW04c8RPcjESwWbvyzaZmQVJ+qWta4nMT1HBbblNufCATwXu2/VyjugZIkIBTvld+3iAOaon7IHXmJ7A0c89qkeSJEmSJEmSJEmS9JcvuaYOE581H7cAAAAASUVORK5CYII="/>
<image width="48" height="48" id="image37" xlink:href="data:image/png;base64,iVBORw0KGgoAAAANSUhEUgAAADAAAAAwCAYAAABXAvmHAAAABmJLR0QA/wD/AP+gvaeTAAAAf0lEQVRoge3PsQnCUBhF4fMMNpIZIriNiKXpHMTu2QesbTJA3EQQnMApbGMsLc0PBpvzlbc6FyRJkiRJkiRJkiR9tc3nRc559u8OgHDEummPfTl/XsvqsTm1qymiIkIHdl1XJDgACVgOr7SfJmu80IFLXffA/bMMtx/3SJIU8gZS+hPsTFlE4gAAAABJRU5ErkJggg=="/>
<image width="48" height="48" id="image24" xlink:href="data:image/png;base64,iVBORw0KGgoAAAANSUhEUgAAADAAAAAwCAYAAABXAvmHAAAABmJLR0QA/wD/AP+gvaeTAAAAVElEQVRoge3PQQ0AIRDAwGNF4P+BUETcY0LSUdCuPXO+h40O+KsBrQGtAa0BrQGtAa0BrQGtAa0BrQGtAa0BrQGtAa0BrQGtAa0BrQGtAa0BrQHtAsgPAR5Ik1qvAAAAAElFTkSuQmCC"/>
<mask id="mask4">
<g style="filter:url(#alpha)">
<use xlink:href="#image51"/>
</g>
</mask>
<mask id="mask2">
<g style="filter:url(#alpha)">
<use xlink:href="#image33"/>
</g>
</mask>
<mask id="mask0">
<g style="filter:url(#alpha)">
<use xlink:href="#image15"/>
</g>
</mask>
<mask id="mask1">
<g style="filter:url(#alpha)">
<use xlink:href="#image24"/>
</g>
</mask>
<mask id="mask3">
<g style="filter:url(#alpha)">
<use xlink:href="#image42"/>
</g>
</mask>
</defs>
<path style="fill:#4a8c9d" d="M 22.964844 17.546875 L 25.035156 17.546875 C 28.136719 17.546875 28.074219 20.695312 28.074219 20.695312 L 28.074219 23.398438 C 28.074219 24.425781 26.261719 26.546875 26.261719 26.546875 L 26.261719 27.898438 L 30.335938 30.148438 L 30.335938 31.949219 L 17.664062 31.949219 L 17.664062 30.148438 L 21.738281 27.898438 L 21.738281 26.546875 C 21.738281 26.546875 19.917969 24.425781 19.925781 23.398438 L 19.925781 20.695312 C 19.925781 20.695312 19.863281 17.546875 22.964844 17.546875 Z "/>
<g style="fill:none;stroke:#4a8c9d;stroke-linejoin:round;stroke-linecap:round">
<path style="stroke-width:5.285" d="M 224.880727 113.269343 C 224.880727 142.362099 190.705161 165.94342 148.520774 165.94342 C 106.336388 165.94342 72.160822 142.362099 72.160822 113.269343 C 72.160822 84.188491 106.336388 60.60717 148.520774 60.60717 C 190.705161 60.60717 224.880727 84.188491 224.880727 113.269343 Z " transform="matrix(.22631 0 0 .32815 -9.61218 -12.42358)"/>
<path style="stroke-width:7.687" d="M 224.895131 113.268121 C 224.895131 142.356443 190.700474 165.938762 148.522042 165.938762 C 106.34361 165.938762 72.148953 142.356443 72.148953 113.268121 C 72.148953 84.179799 106.34361 60.597481 148.522042 60.597481 C 190.700474 60.597481 224.895131 84.179799 224.895131 113.268121 Z " transform="matrix(.15559 0 0 .22561 .8916 -.80787)"/>
</g>
<use style="mask:url(#mask0)" xlink:href="#surface17"/>
<use style="mask:url(#mask1)" xlink:href="#surface26"/>
<use style="mask:url(#mask2)" xlink:href="#surface35"/>
<use style="mask:url(#mask3)" xlink:href="#surface44"/>
<use style="mask:url(#mask4)" xlink:href="#surface53"/>
<g style="fill:#4a8c9d">
<path d="M 14.417969 21.433594 C 14.417969 22.425781 13.613281 23.234375 12.617188 23.234375 C 11.625 23.234375 10.816406 22.425781 10.816406 21.433594 C 10.816406 20.4375 11.625 19.632812 12.617188 19.632812 C 13.613281 19.632812 14.417969 20.4375 14.417969 21.433594 Z "/>
<path d="M 35.941406 19.0625 C 35.941406 20.054688 35.136719 20.863281 34.140625 20.863281 C 33.148438 20.863281 32.339844 20.054688 32.339844 19.0625 C 32.339844 18.066406 33.148438 17.261719 34.140625 17.261719 C 35.136719 17.261719 35.941406 18.066406 35.941406 19.0625 Z "/>
<path d="M 26.269531 7.683594 C 26.269531 8.679688 25.464844 9.484375 24.46875 9.484375 C 23.476562 9.484375 22.671875 8.679688 22.671875 7.683594 C 22.671875 6.6875 23.476562 5.882812 24.46875 5.882812 C 25.464844 5.882812 26.269531 6.6875 26.269531 7.683594 Z "/>
<path d="M 15.558594 38.6875 C 15.558594 39.683594 14.75 40.488281 13.757812 40.488281 C 12.761719 40.488281 11.957031 39.683594 11.957031 38.6875 C 11.957031 37.695312 12.761719 36.886719 13.757812 36.886719 C 14.75 36.886719 15.558594 37.695312 15.558594 38.6875 Z "/>
<path d="M 35.089844 39.445312 C 35.089844 40.441406 34.28125 41.246094 33.289062 41.246094 C 32.292969 41.246094 31.488281 40.441406 31.488281 39.445312 C 31.488281 38.453125 32.292969 37.648438 33.289062 37.648438 C 34.28125 37.648438 35.089844 38.453125 35.089844 39.445312 Z "/>
</g>
</svg>
